img/logo.svg

<svg width="100" height="32" viewBox="0 0 100 32" fill="none" xmlns="http://www.w3.org/2000/svg">
<path d="M6.72 23.64C6.28 24 6.16 24.48 6.32 24.88C6.44 25.28 6.8 25.6 7.28 25.6H20.96V27.88H2.28V24.8L9.6 17.68C10.6 16.68 11.88 16.16 13.32 15.56C15.12 14.8 16.48 14.04 17.72 12.56C17.84 12.4 18.16 12.08 18.6 11.56C19.04 11.08 19.56 10.52 20.08 9.92C21.16 8.72 22.28 7.48 22.88 6.84C23.12 6.6 23.24 6.32 23.24 6.04V1.32C23.24 0.56 22.84 0.16 22.04 0.16H1.88C1.08 0.16 0.68 0.56 0.68 1.32V5.88C0.68 6.64 1.08 7 1.88 7H13.56L11.88 8.8C11.4 9.28 11.6 9.88 12 10.28C12.4 10.68 13.04 10.84 13.52 10.36L16.92 6.6C17.24 6.24 17.28 5.76 17.12 5.4C16.96 5.04 16.56 4.72 16.08 4.72H2.88V2.44H20.96V5.64L18.2 8.68C17.6 9.28 17.08 9.88 16.6 10.4C15.64 11.48 15.32 11.84 14.88 12.2C14.4 12.56 14 12.8 13.44 13.04L12.36 13.52C10.64 14.16 9.24 14.8 7.92 16.12L0.32 23.52C0.12 23.72 0 24 0 24.36V29.04C0 29.8 0.4 30.16 1.2 30.16H22.04C22.84 30.16 23.24 29.8 23.24 29.04V24.48C23.24 23.72 22.84 23.32 22.04 23.32H10.32L12.56 21.04C13.08 20.56 12.96 19.92 12.6 19.48C12.24 19.04 11.6 18.84 11.12 19.32L6.72 23.64Z" transform="translate(0.400024 0.839996)" fill="#00CE7C"/>
<path d="M34.9347 18.48C34.9347 17.72 34.3747 17.4 33.8147 17.4C33.2547 17.4 32.6547 17.8 32.6547 18.48V27.88H30.3747V18.6C30.3747 16.96 31.4947 15.96 32.5747 14.8C33.6947 13.56 34.9347 12.36 34.9347 10.64V1.28C34.9347 0.52 34.5347 0.16 33.7347 0.16H29.2947C28.4947 0.16 28.0947 0.52 28.0947 1.28V10.2C28.0947 10.96 28.6947 11.28 29.2547 11.28C29.8147 11.28 30.3747 10.96 30.3747 10.2V2.44H32.6547V10.28C32.6547 11.52 31.8147 12.36 30.8147 13.36C29.4147 14.76 28.0947 16.12 28.0947 18.32V29.04C28.0947 29.8 28.4947 30.16 29.2947 30.16H33.7347C34.5347 30.16 34.9347 29.8 34.9347 29.04V18.48Z" transform="translate(0.400024 0.839996)" fill="#00CE7C"/>
<path d="M62.4866 22.68C62.8066 23.12 63.2866 23.24 63.7266 23.16C64.1666 23.08 64.4866 22.76 64.4866 22V2.44H66.7666V27.88H63.5266L48.3666 7.36C48.0466 6.88 47.4866 6.68 47.0466 6.8C46.6066 6.92 46.2466 7.32 46.2466 8.12V9.96C46.2466 10.4 45.9666 10.88 45.4066 11.4C44.8466 11.92 44.2466 12.48 43.6466 13.08C42.5666 14.08 41.7266 15.4 41.7266 16.72V29.04C41.7266 29.8 42.1266 30.16 42.9266 30.16H47.3266C48.1266 30.16 48.5266 29.8 48.5266 29.04V17.04C48.5266 16.28 47.9666 15.92 47.4066 15.92C46.8466 15.92 46.2466 16.28 46.2466 17.04V27.88H44.0066V17.08C43.9666 15.68 44.8866 15.08 46.1266 13.84C46.9666 13.04 47.4466 12.56 47.7666 12.2C48.0466 11.84 48.1266 11.56 48.2466 11.08L62.0066 29.68C62.2466 30 62.5266 30.16 62.8866 30.16H67.8466C68.6466 30.16 69.0466 29.8 69.0466 29.04V1.28C69.0466 0.52 68.6466 0.16 67.8466 0.16H63.4066C62.6066 0.16 62.2066 0.52 62.2066 1.28L62.2466 18.56L49.0866 0.599998C48.8466 0.32 48.5266 0.16 48.1666 0.16H42.9266C42.1266 0.16 41.7266 0.52 41.7266 1.28V9.4C41.7266 10.16 42.3666 10.52 42.9266 10.52C43.4866 10.52 44.0066 10.16 44.0066 9.4V2.44H47.6066L62.4866 22.68Z" transform="translate(0.400024 0.839996)" fill="#00CE7C"/>
<path d="M76.4281 19.92C75.9881 18.92 76.1481 18.08 76.5081 17.28C76.8681 16.48 77.5481 15.8 78.3481 15.04C78.9081 14.52 79.3481 14.08 79.6281 13.68C80.2281 12.92 80.5481 12.24 80.8681 11.56C81.0281 11.2 81.2281 10.84 81.4681 10.44C83.0681 8.04 85.6281 6.84 88.4681 6.84C91.0281 6.84 92.9881 7.88 94.1081 8.96C94.3081 9.16 94.5881 9.28 94.8681 9.28C95.1481 9.28 95.4281 9.16 95.6281 8.96L98.6281 5.64C98.9081 5.28 99.0681 5 99.0681 4.76C99.0681 4.52 98.9481 4.28 98.6681 4C95.9881 1.44 92.6681 0 88.4681 0C84.9481 0 81.7881 1.2 79.3481 2.96C76.9081 4.76 75.0681 7.24 74.1081 9.8C73.9081 10.48 74.3081 11.04 74.8281 11.24C75.3481 11.44 76.0281 11.32 76.2281 10.64C77.0681 8.36 78.6681 6.24 80.7481 4.72C82.8281 3.2 85.4281 2.28 88.4681 2.28C90.4281 2.28 92.1081 2.68 93.3881 3.2C94.6681 3.72 95.6681 4.36 96.3081 4.84L94.7481 6.56C92.7881 5.24 90.6681 4.56 88.4681 4.56C84.7481 4.56 81.3881 6.36 79.3481 9.6C79.1481 9.96 78.9481 10.32 78.8281 10.64L78.3081 11.64C77.9081 12.32 77.3081 13.08 76.2281 14.04C74.9881 15.16 73.8281 16.76 73.8281 18.64C73.8281 19 73.9081 19.48 74.0281 20C75.0281 23 77.1081 25.56 79.7081 27.36C82.2681 29.16 85.4281 30.24 88.5081 30.24C92.5081 30.24 95.8681 28.56 98.7881 25.8C99.0681 25.52 99.1881 25.28 99.1881 25C99.1881 24.72 99.0681 24.44 98.7881 24.16L95.6681 20.92C95.1881 20.4 94.5481 20.28 94.0281 20.88C92.4681 22.36 90.9881 23.4 88.4681 23.4C86.5881 23.4 84.9481 22.8 83.6281 21.84C82.3081 20.88 81.2681 19.56 80.6281 18.12C80.3481 17.44 79.6681 17.32 79.1481 17.56C78.6281 17.8 78.2281 18.4 78.5481 19.08C79.3881 20.96 80.7081 22.64 82.4281 23.8C84.1481 24.96 86.2281 25.68 88.5081 25.68C90.8681 25.68 92.7881 24.76 94.7081 23.32L96.3881 24.96C93.9881 26.92 91.5081 27.96 88.5081 27.96C85.8281 27.96 83.2681 27.04 81.1481 25.56C79.0281 24.12 77.2681 22.12 76.4281 19.92Z" transform="translate(0.400024 0.839996)" fill="#00CE7C"/>
</svg>

<svg fill="none" height="32" viewBox="0 0 100 32" width="100" xmlns="http://www.w3.org/2000/svg"><g fill="#00ce7c" transform="translate(.400024 .839996)"><path d="m6.72 23.64c-.44.36-.56.84-.4 1.24.12.4.48.72.96.72h13.68v2.28h-18.68v-3.08l7.32-7.12c1-1 2.28-1.52 3.72-2.12 1.8-.76 3.16-1.52 4.4-3 .12-.16.44-.48.88-1 .44-.48.96-1.04 1.48-1.64 1.08-1.2 2.2-2.44 2.8-3.08.24-.24.36-.52.36-.8v-4.72c0-.76-.4-1.16-1.2-1.16h-20.16c-.8 0-1.2.4-1.2 1.16v4.56c0 .76.4 1.12 1.2 1.12h11.68l-1.68 1.8c-.48.48-.28 1.08.12 1.48s1.04.56 1.52.08l3.4-3.76c.32-.36.36-.84.2-1.2s-.56-.68-1.04-.68h-13.2v-2.28h18.08v3.2l-2.76 3.04c-.6.6-1.12 1.2-1.6 1.72-.96 1.08-1.28 1.44-1.72 1.8-.48.36-.88.6-1.44.84l-1.08.48c-1.72.64-3.12 1.28-4.44 2.6l-7.6 7.4c-.2.2-.32.48-.32.84v4.68c0 .76.4 1.12 1.2 1.12h20.84c.8 0 1.2-.36 1.2-1.12v-4.56c0-.76-.4-1.16-1.2-1.16h-11.72l2.24-2.28c.52-.48.4-1.12.04-1.56s-1-.64-1.48-.16z"/><path d="m34.9347 18.48c0-.76-.56-1.08-1.12-1.08s-1.16.4-1.16 1.08v9.4h-2.28v-9.28c0-1.64 1.12-2.64 2.2-3.8 1.12-1.24 2.36-2.44 2.36-4.16v-9.36c0-.76-.4-1.12-1.2-1.12h-4.44c-.8 0-1.2.36-1.2 1.12v8.92c0 .76.6 1.08 1.16 1.08s1.12-.32 1.12-1.08v-7.76h2.28v7.84c0 1.24-.84 2.08-1.84 3.08-1.4 1.4-2.72 2.76-2.72 4.96v10.72c0 .76.4 1.12 1.2 1.12h4.44c.8 0 1.2-.36 1.2-1.12z"/><path d="m62.4866 22.68c.32.44.8.56 1.24.48s.76-.4.76-1.16v-19.56h2.28v25.44h-3.24l-15.16-20.52c-.32-.48-.88-.68-1.32-.56s-.8.52-.8 1.32v1.84c0 .44-.28.92-.84 1.44s-1.16 1.08-1.76 1.68c-1.08 1-1.92 2.32-1.92 3.64v12.32c0 .76.4 1.12 1.2 1.12h4.4c.8 0 1.2-.36 1.2-1.12v-12c0-.76-.56-1.12-1.12-1.12s-1.16.36-1.16 1.12v10.84h-2.24v-10.8c-.04-1.4.88-2 2.12-3.24.84-.8 1.32-1.28 1.64-1.64.28-.36.36-.64.48-1.12l13.76 18.6c.24.32.52.48.88.48h4.96c.8 0 1.2-.36 1.2-1.12v-27.76c0-.76-.4-1.12-1.2-1.12h-4.44c-.8 0-1.2.36-1.2 1.12l.04 17.28-13.16-17.960002c-.24-.279998-.56-.439998-.92-.439998h-5.24c-.8 0-1.2.36-1.2 1.12v8.12c0 .76.64 1.12 1.2 1.12s1.08-.36 1.08-1.12v-6.96h3.6z"/><path d="m76.4281 19.92c-.44-1-.28-1.84.08-2.64s1.04-1.48 1.84-2.24c.56-.52 1-.96 1.28-1.36.6-.76.92-1.44 1.24-2.12.16-.36.36-.72.6-1.12 1.6-2.4 4.16-3.6 7-3.6 2.56 0 4.52 1.04 5.64 2.12.2.2.48.32.76.32s.56-.12.76-.32l3-3.32c.28-.36.44-.64.44-.88s-.12-.48-.4-.76c-2.68-2.56-6-4-10.2-4-3.52 0-6.68 1.2-9.12 2.96-2.44 1.8-4.28 4.28-5.24 6.84-.2.68.2 1.24.72 1.44s1.2.08 1.4-.6c.84-2.28 2.44-4.4 4.52-5.92s4.68-2.44 7.72-2.44c1.96 0 3.64.4 4.92.92s2.28 1.16 2.92 1.64l-1.56 1.72c-1.96-1.32-4.08-2-6.28-2-3.72 0-7.08 1.8-9.12 5.04-.2.36-.4.72-.52 1.04l-.52 1c-.4.68-1 1.44-2.08 2.4-1.24 1.12-2.4 2.72-2.4 4.6 0 .36.08.84.2 1.36 1 3 3.08 5.56 5.68 7.36 2.56 1.8 5.72 2.88 8.8 2.88 4 0 7.36-1.68 10.28-4.44.28-.28.4-.52.4-.8s-.12-.56-.4-.84l-3.12-3.24c-.48-.52-1.12-.64-1.64-.04-1.56 1.48-3.04 2.52-5.56 2.52-1.88 0-3.52-.6-4.84-1.56s-2.36-2.28-3-3.72c-.28-.68-.96-.8-1.48-.56s-.92.84-.6 1.52c.84 1.88 2.16 3.56 3.88 4.72s3.8 1.88 6.08 1.88c2.36 0 4.28-.92 6.2-2.36l1.68 1.64c-2.4 1.96-4.88 3-7.88 3-2.68 0-5.24-.92-7.36-2.4-2.12-1.44-3.88-3.44-4.72-5.64z"/></g></svg>
